X:515
T:Saligheten er oss n\aer
C:Ludvig Mathias Lindeman
O:Norway
R:Hymn
Z:Transcribed by Frank Nordberg - http://www.musicaviva.com
F:http://abc.musicaviva.com/tunes/lindeman-ludvig-mathias/saligheten-er-oss/saligheten-er-oss-pno2.abc
V:1 Program 1 19 up %Church organ
V:2 Program 1 19 merge down %Church organ
V:3 Program 1 19 bass up %Church organ
V:4 Program 1 19 bass merge down %Church organ
M:C
L:1/4
K:C
V:1
C>CCD|EAG2|c>GcB|A>EA=G|F>GEc|
V:2
G,>A,CG,|G,A,/B,/C2|C>B,CE|E>B,A,A,|A,>DCC|
V:3
E,>F,E,D,|C,C,/D,/E,2|G,>G,G,^G,|A,>^G,E,E,|F,>D,G,A,|
V:4
C,>G,,A,,B,,|C,F,,C,2|E,>F,E,D,|C,>D,C,^C,|D,>B,,=C,A,,|
%
V:1
AdBG|EcB(A/G/)|BAG2|E>DCG|EcAB|
V:2
DDDD|E^FG-G|G^FD2|C>B,CD|CEFG|
V:3
^F,A,G,G,|G,CDE|DCB,2|G,>G,G,G,|G,CCD|
V:4
D,^F,G,B,,|C,A,,B,,C,|D,D,G,,2|C,>F,E,B,,|C,A,F,F,|
%
V:1
cAGE|GFD2|E>DC=G|EcAB|cAGC|E2D2|C4|]
V:2
GEDC|EDB,2|B,>B,CD|CCCD|CCCC|C2B,2|C4|]
V:3
CCDG,|A,A,G,2|E,>E,E,D,|G,G,F,F,|E,F,E,E,|G,2F,2|E,4|]
V:4
E,C,B,,C,|F,,F,,G,,2|^G,,>G,,A,,B,,|C,E,F,D,|A,,F,,G,,A,,|G,,2G,,2|C,4|]
W:
W:
W:  From Musica Viva - http://www.musicaviva.com
W:  the Internet center for free sheet music downloads.

